www/assets/images/src/icon_science_bubbling.svg

<svg fill="none" height="752" viewBox="0 0 752 752" width="752" xmlns="http://www.w3.org/2000/svg" xmlns:xlink="http://www.w3.org/1999/xlink"><mask id="a" fill="#000" height="364" maskUnits="userSpaceOnUse" width="349" x="164.705" y="245"><path d="m164.705 245h349v364h-349z" fill="#fff"/><path clip-rule="evenodd" d="m254.944 273h155.189l-19.713 28.315c-9.872 14.18-11.724 32.452-4.897 48.324l6.611 15.37 19.77-17.307-3.415-7.941c-3.414-7.936-2.488-17.072 2.448-24.162l19.713-28.315c11.54-16.575-.321-39.284-20.517-39.284h-155.189c-21.123 0-32.726 24.573-19.305 40.884l22.011 26.752c5.771 7.014 7.284 16.605 3.952 25.054l-91.13 231.14c-6.468 16.405 5.624 34.17 23.258 34.17h291.303c17.962 0 30.063-18.377 22.966-34.878l-24.63-57.265-43.649-38.209 45.313 105.352h-291.303l91.13-231.14c6.663-16.899 3.636-36.081-7.905-50.108z" fill="#000" fill-rule="evenodd"/></mask><g fill="#4e8f37"><path d="m377 213c0 11.598-9.402 21-21 21s-21-9.402-21-21 9.402-21 21-21 21 9.402 21 21z"/><path d="m401 142c0 11.598-9.402 21-21 21s-21-9.402-21-21 9.402-21 21-21 21 9.402 21 21z"/><path d="m335 156c0 16.569-13.431 30-30 30s-30-13.431-30-30 13.431-30 30-30 30 13.431 30 30z"/><path d="m306.941 457.038c-28.477-4.299-36.492 5.373-36.94 10.746l-38.282 87.983 211.562.672c-9.85-30.224-29.356-87.371-36.268-82.611-71.783 49.443-64.476-11.417-100.072-16.79z"/><path d="m488.419 328.379-67.475 59.067c-9.449 8.271-9.449 21.837 0 30.108l67.475 59.067c4.849 4.245 12.44.801 12.44-5.643v-18.326c0-2.162-.933-4.219-2.56-5.643l-48.696-42.628c-1.138-.996-1.138-2.766 0-3.762l48.696-42.628c1.627-1.424 2.56-3.481 2.56-5.643v-18.326c0-6.444-7.591-9.888-12.44-5.643zm105.977 76.002-48.696 42.628c-1.627 1.424-2.56 3.481-2.56 5.643v18.326c0 6.444 7.591 9.888 12.44 5.643l29.591-25.903 37.884-33.164c9.449-8.271 9.449-21.837 0-30.108l-67.475-59.067c-4.849-4.245-12.44-.801-12.44 5.643v18.326c0 2.162.933 4.219 2.56 5.643l48.696 42.628c1.138.996 1.138 2.766 0 3.762z" stroke="#4e8f37" stroke-width="5"/><path clip-rule="evenodd" d="m254.944 273h155.189l-19.713 28.315c-9.872 14.18-11.724 32.452-4.897 48.324l6.611 15.37 19.77-17.307-3.415-7.941c-3.414-7.936-2.488-17.072 2.448-24.162l19.713-28.315c11.54-16.575-.321-39.284-20.517-39.284h-155.189c-21.123 0-32.726 24.573-19.305 40.884l22.011 26.752c5.771 7.014 7.284 16.605 3.952 25.054l-91.13 231.14c-6.468 16.405 5.624 34.17 23.258 34.17h291.303c17.962 0 30.063-18.377 22.966-34.878l-24.63-57.265-43.649-38.209 45.313 105.352h-291.303l91.13-231.14c6.663-16.899 3.636-36.081-7.905-50.108z" fill-rule="evenodd"/><path d="m414.659 399.5-.988-1.129-1.289 1.129 1.289 1.129zm32.302 26.283-31.314-27.412-1.976 2.258 31.314 27.411zm-31.314-25.154 14.184-12.417-1.976-2.257-14.184 12.416zm-5.514-127.629 2.462 1.714 3.282-4.714h-5.744zm-155.189 0v-3h-6.353l4.037 4.906zm135.476 28.315-2.462-1.714zm-4.897 48.324-2.756 1.185zm6.611 15.37-2.756 1.185 1.629 3.788 3.103-2.716zm19.77-17.307 1.976 2.257 1.642-1.437-.862-2.005zm-3.415-7.941-2.756 1.186zm2.448-24.162-2.462-1.714zm19.713-28.315 2.462 1.714zm-195.011 1.6-2.317 1.906zm22.011 26.752-2.316 1.906zm3.952 25.054 2.791 1.1zm-91.13 231.14 2.791 1.101zm337.527-.708-2.756 1.186zm-24.63-57.265 2.755-1.185-.268-.625-.511-.447zm-43.649-38.209 1.976-2.258-4.732 3.443zm45.313 105.352v3h4.556l-1.8-4.185zm-291.303 0-2.791-1.1-1.617 4.1h4.408zm91.13-231.14-2.791-1.101zm-7.905-50.108-2.316 1.906zm133.178-29.752h-155.189v6h155.189zm-17.251 33.029 19.713-28.315-4.924-3.428-19.713 28.315zm-4.603 45.425c-6.417-14.92-4.677-32.096 4.603-45.425l-4.924-3.428c-10.465 15.031-12.427 34.399-5.191 51.223zm6.61 15.369-6.61-15.369-5.512 2.37 6.611 15.37zm-.779 3.443 19.77-17.307-3.952-4.514-19.77 17.307zm20.55-20.749-3.415-7.941-5.512 2.371 3.415 7.94zm-3.415-7.941c-3.004-6.984-2.189-15.023 2.154-21.263l-4.924-3.428c-5.528 7.941-6.565 18.173-2.742 27.062zm2.154-21.263 19.713-28.315-4.924-3.428-19.713 28.315zm19.713-28.315c12.925-18.564-.359-43.998-22.979-43.998v6c17.773 0 28.21 19.984 18.055 34.57zm-22.979-43.998h-155.189v6h155.189zm-155.189 0c-23.657 0-36.653 27.522-21.622 45.79l4.633-3.812c-11.81-14.354-1.599-35.978 16.989-35.978zm-21.622 45.79 22.012 26.752 4.633-3.812-22.012-26.752zm22.012 26.752c5.078 6.172 6.409 14.612 3.478 22.048l5.581 2.2c3.731-9.463 2.037-20.205-4.426-28.06zm3.478 22.048-91.131 231.14 5.582 2.201 91.13-231.141zm-91.131 231.14c-7.244 18.373 6.299 38.27 26.049 38.27v-6c-15.518 0-26.159-15.633-20.467-30.069zm26.049 38.27h291.303v-6h-291.303zm291.303 0c20.117 0 33.67-20.583 25.722-39.063l-5.512 2.371c6.245 14.52-4.404 30.692-20.21 30.692zm25.722-39.063-24.631-57.265-5.511 2.37 24.63 57.266zm-25.41-58.337-43.649-38.21-3.952 4.515 43.649 38.209zm2.444 68.215-45.313-105.353-5.512 2.371 45.313 105.352zm-294.059 4.185h291.303v-6h-291.303zm88.339-235.241-91.13 231.141 5.581 2.2 91.131-231.14zm-7.43-47.101c10.848 13.185 13.693 31.217 7.43 47.101l5.582 2.201c7.062-17.912 3.855-38.246-8.379-53.114zm-22.011-26.752 22.011 26.752 4.633-3.812-22.011-26.752z" mask="url(#a)"/></g></svg>

<svg width="752" height="752" viewBox="0 0 752 752" fill="none" xmlns="http://www.w3.org/2000/svg">
<path d="M377 213C377 224.598 367.598 234 356 234C344.402 234 335 224.598 335 213C335 201.402 344.402 192 356 192C367.598 192 377 201.402 377 213Z" fill="#4E8F37"/>
<path d="M401 142C401 153.598 391.598 163 380 163C368.402 163 359 153.598 359 142C359 130.402 368.402 121 380 121C391.598 121 401 130.402 401 142Z" fill="#4E8F37"/>
<path d="M335 156C335 172.569 321.569 186 305 186C288.431 186 275 172.569 275 156C275 139.431 288.431 126 305 126C321.569 126 335 139.431 335 156Z" fill="#4E8F37"/>
<path d="M306.941 457.038C278.464 452.739 270.449 462.411 270.001 467.784L231.719 555.767L443.281 556.439C433.431 526.215 413.925 469.068 407.013 473.828C335.23 523.271 342.537 462.411 306.941 457.038Z" fill="#4E8F37"/>
<path d="M488.419 328.379L420.944 387.446C411.495 395.717 411.495 409.283 420.944 417.554L488.419 476.621C493.268 480.866 500.859 477.422 500.859 470.978V452.652C500.859 450.49 499.926 448.433 498.299 447.009L449.603 404.381C448.465 403.385 448.465 401.615 449.603 400.619L498.299 357.991C499.926 356.567 500.859 354.51 500.859 352.348V334.022C500.859 327.578 493.268 324.134 488.419 328.379ZM594.396 404.381L545.7 447.009C544.073 448.433 543.14 450.49 543.14 452.652V470.978C543.14 477.422 550.731 480.866 555.58 476.621L585.171 450.718L623.055 417.554C632.504 409.283 632.504 395.717 623.055 387.446L555.58 328.379C550.731 324.134 543.14 327.578 543.14 334.022V352.348C543.14 354.51 544.073 356.567 545.7 357.991L594.396 400.619C595.534 401.615 595.534 403.385 594.396 404.381Z" fill="#4E8F37" stroke="#4E8F37" stroke-width="5"/>
<mask id="path-6-outside-1_2_2" maskUnits="userSpaceOnUse" x="164.705" y="245" width="349" height="364" fill="black">
<rect fill="white" x="164.705" y="245" width="349" height="364"/>
<path fill-rule="evenodd" clip-rule="evenodd" d="M254.944 273H410.133L390.42 301.315C380.548 315.495 378.696 333.767 385.523 349.639L392.134 365.009L411.904 347.702L408.489 339.761C405.075 331.825 406.001 322.689 410.937 315.599L430.65 287.284C442.19 270.709 430.329 248 410.133 248H254.944C233.821 248 222.218 272.573 235.639 288.884L257.65 315.636C263.421 322.65 264.934 332.241 261.602 340.69L170.472 571.83C164.004 588.235 176.096 606 193.73 606H485.033C502.995 606 515.096 587.623 507.999 571.122L483.369 513.857L439.72 475.648L485.033 581H193.73L284.86 349.86C291.523 332.961 288.496 313.779 276.955 299.752L254.944 273Z"/>
</mask>
<path fill-rule="evenodd" clip-rule="evenodd" d="M254.944 273H410.133L390.42 301.315C380.548 315.495 378.696 333.767 385.523 349.639L392.134 365.009L411.904 347.702L408.489 339.761C405.075 331.825 406.001 322.689 410.937 315.599L430.65 287.284C442.19 270.709 430.329 248 410.133 248H254.944C233.821 248 222.218 272.573 235.639 288.884L257.65 315.636C263.421 322.65 264.934 332.241 261.602 340.69L170.472 571.83C164.004 588.235 176.096 606 193.73 606H485.033C502.995 606 515.096 587.623 507.999 571.122L483.369 513.857L439.72 475.648L485.033 581H193.73L284.86 349.86C291.523 332.961 288.496 313.779 276.955 299.752L254.944 273Z" fill="#4E8F37"/>
<path d="M414.659 399.5L413.671 398.371L412.382 399.5L413.671 400.629L414.659 399.5ZM446.961 425.783L415.647 398.371L413.671 400.629L444.985 428.04L446.961 425.783ZM415.647 400.629L429.831 388.212L427.855 385.955L413.671 398.371L415.647 400.629ZM410.133 273L412.595 274.714L415.877 270H410.133V273ZM254.944 273V270H248.591L252.628 274.906L254.944 273ZM390.42 301.315L387.958 299.601L387.958 299.601L390.42 301.315ZM385.523 349.639L382.767 350.824L382.767 350.824L385.523 349.639ZM392.134 365.009L389.378 366.194L391.007 369.982L394.11 367.266L392.134 365.009ZM411.904 347.702L413.88 349.959L415.522 348.522L414.66 346.517L411.904 347.702ZM408.489 339.761L405.733 340.947L405.733 340.947L408.489 339.761ZM410.937 315.599L408.475 313.885L408.475 313.885L410.937 315.599ZM430.65 287.284L433.112 288.998L433.112 288.998L430.65 287.284ZM235.639 288.884L233.322 290.79L233.322 290.79L235.639 288.884ZM257.65 315.636L255.334 317.542L257.65 315.636ZM261.602 340.69L264.393 341.79L264.393 341.79L261.602 340.69ZM170.472 571.83L173.263 572.931L173.263 572.931L170.472 571.83ZM507.999 571.122L505.243 572.308L505.243 572.308L507.999 571.122ZM483.369 513.857L486.124 512.672L485.856 512.047L485.345 511.6L483.369 513.857ZM439.72 475.648L441.696 473.39L436.964 476.833L439.72 475.648ZM485.033 581V584H489.589L487.789 579.815L485.033 581ZM193.73 581L190.939 579.9L189.322 584H193.73V581ZM284.86 349.86L282.069 348.759L282.069 348.759L284.86 349.86ZM276.955 299.752L274.639 301.658L274.639 301.658L276.955 299.752ZM410.133 270H254.944V276H410.133V270ZM392.882 303.029L412.595 274.714L407.671 271.286L387.958 299.601L392.882 303.029ZM388.279 348.454C381.862 333.534 383.602 316.358 392.882 303.029L387.958 299.601C377.493 314.632 375.531 334 382.767 350.824L388.279 348.454ZM394.889 363.823L388.279 348.454L382.767 350.824L389.378 366.194L394.889 363.823ZM394.11 367.266L413.88 349.959L409.928 345.445L390.158 362.752L394.11 367.266ZM414.66 346.517L411.245 338.576L405.733 340.947L409.148 348.887L414.66 346.517ZM411.245 338.576C408.241 331.592 409.056 323.553 413.399 317.313L408.475 313.885C402.947 321.826 401.91 332.058 405.733 340.947L411.245 338.576ZM413.399 317.313L433.112 288.998L428.188 285.57L408.475 313.885L413.399 317.313ZM433.112 288.998C446.037 270.434 432.753 245 410.133 245V251C427.906 251 438.343 270.984 428.188 285.57L433.112 288.998ZM410.133 245H254.944V251H410.133V245ZM254.944 245C231.287 245 218.291 272.522 233.322 290.79L237.955 286.978C226.145 272.624 236.356 251 254.944 251V245ZM233.322 290.79L255.334 317.542L259.967 313.73L237.955 286.978L233.322 290.79ZM255.334 317.542C260.412 323.714 261.743 332.154 258.812 339.59L264.393 341.79C268.124 332.327 266.43 321.585 259.967 313.73L255.334 317.542ZM258.812 339.59L167.681 570.73L173.263 572.931L264.393 341.79L258.812 339.59ZM167.681 570.73C160.437 589.103 173.98 609 193.73 609V603C178.212 603 167.571 587.367 173.263 572.931L167.681 570.73ZM193.73 609H485.033V603H193.73V609ZM485.033 609C505.15 609 518.703 588.417 510.755 569.937L505.243 572.308C511.488 586.828 500.839 603 485.033 603V609ZM510.755 569.937L486.124 512.672L480.613 515.042L505.243 572.308L510.755 569.937ZM485.345 511.6L441.696 473.39L437.744 477.905L481.393 516.114L485.345 511.6ZM487.789 579.815L442.476 474.462L436.964 476.833L482.277 582.185L487.789 579.815ZM193.73 584H485.033V578H193.73V584ZM282.069 348.759L190.939 579.9L196.52 582.1L287.651 350.96L282.069 348.759ZM274.639 301.658C285.487 314.843 288.332 332.875 282.069 348.759L287.651 350.96C294.713 333.048 291.506 312.714 279.272 297.846L274.639 301.658ZM252.628 274.906L274.639 301.658L279.272 297.846L257.261 271.094L252.628 274.906Z" fill="#4E8F37" mask="url(#path-6-outside-1_2_2)"/>
</svg>
